img/history/arrow-sprite.svg

<svg height="0" width="0" display="none" xmlns="http://www.w3.org/2000/svg">
  <symbol id="left" viewBox="0 0 14 14">
    <path d="M8.31689 12.9375C8.62939 12.625 8.59814 12.1562 8.31689 11.8438L4.53564 8.25H13.5356C13.9419 8.25 14.2856 7.9375 14.2856 7.5V6.5C14.2856 6.09375 13.9419 5.75 13.5356 5.75H4.53564L8.31689 2.1875C8.59814 1.875 8.62939 1.40625 8.31689 1.09375L7.62939 0.40625C7.34814 0.125 6.84814 0.125 6.56689 0.40625L0.504395 6.5C0.191895 6.78125 0.191895 7.25 0.504395 7.53125L6.56689 13.625C6.84814 13.9062 7.31689 13.9062 7.62939 13.625L8.31689 12.9375Z"/>
  </symbol>
  <symbol id="right" viewBox="0 0 14 14">
    <path d="M5.9375 1.09375C5.625 1.40625 5.65625 1.875 5.9375 2.1875L9.71875 5.75H0.75C0.3125 5.75 0 6.09375 0 6.5V7.5C0 7.9375 0.3125 8.25 0.75 8.25H9.71875L5.9375 11.8438C5.65625 12.1562 5.65625 12.625 5.9375 12.9375L6.625 13.625C6.9375 13.9062 7.40625 13.9062 7.6875 13.625L13.7812 7.53125C14.0625 7.25 14.0625 6.78125 13.7812 6.46875L7.6875 0.40625C7.40625 0.125 6.9375 0.125 6.625 0.40625L5.9375 1.09375Z"/>
  </symbol>
</svg>

<svg height="0" width="0" display="none" xmlns="http://www.w3.org/2000/svg">
  <symbol id="left" viewBox="0 0 14 14">
    <path d="M8.317 12.938c.312-.313.281-.782 0-1.094L4.536 8.25h9a.74.74 0 00.75-.75v-1a.76.76 0 00-.75-.75h-9l3.78-3.563c.282-.312.313-.78 0-1.093L7.63.406a.774.774 0 00-1.062 0L.504 6.5a.684.684 0 000 1.031l6.063 6.094c.281.281.75.281 1.062 0l.688-.688z"/>
  </symbol>
  <symbol id="right" viewBox="0 0 14 14">
    <path d="M5.938 1.094c-.313.312-.282.781 0 1.093l3.78 3.563H.75A.74.74 0 000 6.5v1c0 .438.313.75.75.75h8.969l-3.781 3.594a.814.814 0 000 1.094l.687.687c.313.281.781.281 1.063 0l6.093-6.094c.281-.281.281-.75 0-1.062L7.687.406c-.28-.281-.75-.281-1.062 0l-.688.688z"/>
  </symbol>
</svg>
